dist/assets/media/img/advantages-24.svg

<svg width="40" height="40" viewBox="0 0 40 40" fill="none" xmlns="http://www.w3.org/2000/svg">
<path d="M16.3992 2.16073C18.3016 -0.0535776 21.6984 -0.0535776 23.6008 2.16073C24.9062 3.68017 26.896 4.41358 28.8654 4.09763C31.7238 3.63907 34.334 5.84422 34.3841 8.78693C34.4183 10.7961 35.4741 12.6481 37.1817 13.6852C39.6693 15.1959 40.2634 18.5885 38.4333 20.8729C37.181 22.4362 36.8146 24.5403 37.4621 26.4406C38.4104 29.2235 36.7025 32.202 33.859 32.7602C31.9019 33.1445 30.2819 34.5211 29.5699 36.3983C28.529 39.1425 25.3342 40.3132 22.8019 38.8928C21.0592 37.9154 18.9408 37.9154 17.1981 38.8928C14.6658 40.3132 11.471 39.1425 10.4301 36.3983C9.71811 34.5211 8.09814 33.1445 6.14098 32.7602C3.29751 32.202 1.58962 29.2235 2.53787 26.4406C3.1854 24.5403 2.81903 22.4362 1.56668 20.8729C-0.263436 18.5885 0.330655 15.1959 2.81826 13.6852C4.52586 12.6481 5.58173 10.7961 5.61593 8.78693C5.66602 5.84422 8.27619 3.63907 11.1346 4.09763C13.104 4.41358 15.0937 3.68017 16.3992 2.16073Z" stroke="#46403C"/>
<path d="M18.589 10.8319C19.056 9.48851 20.9558 9.48851 21.4227 10.8319L22.6033 14.2284C22.9467 15.2161 23.8684 15.8858 24.9138 15.9071L28.509 15.9803C29.9309 16.0093 30.5179 17.8161 29.3846 18.6753L26.5192 20.8478C25.6859 21.4795 25.3338 22.563 25.6366 23.5639L26.6779 27.0057C27.0897 28.367 25.5528 29.4836 24.3854 28.6713L21.4338 26.6174C20.5755 26.0202 19.4362 26.0202 18.5779 26.6174L15.6263 28.6713C14.4589 29.4836 12.922 28.367 13.3338 27.0057L14.3751 23.5639C14.6779 22.5631 14.3258 21.4795 13.4926 20.8478L10.6271 18.6753C9.49379 17.8161 10.0809 16.0093 11.5028 15.9803L15.0979 15.9071C16.1433 15.8858 17.0651 15.2161 17.4084 14.2284L18.589 10.8319Z" stroke="#46403C"/>
</svg>

<svg width="40" height="40" fill="none" xmlns="http://www.w3.org/2000/svg"><path d="M16.4 2.16a4.734 4.734 0 017.2 0 5.74 5.74 0 005.265 1.938c2.859-.459 5.469 1.746 5.52 4.689a5.844 5.844 0 002.797 4.898c2.487 1.51 3.081 4.903 1.251 7.188a5.88 5.88 0 00-.97 5.568c.947 2.783-.76 5.761-3.604 6.32a5.789 5.789 0 00-4.29 3.637c-1.04 2.744-4.235 3.915-6.767 2.495a5.721 5.721 0 00-5.604 0c-2.532 1.42-5.727.25-6.768-2.495a5.789 5.789 0 00-4.289-3.638c-2.843-.558-4.551-3.536-3.603-6.32a5.88 5.88 0 00-.971-5.567c-1.83-2.285-1.236-5.677 1.251-7.188a5.844 5.844 0 002.798-4.898c.05-2.943 2.66-5.148 5.519-4.69a5.74 5.74 0 005.264-1.936z" stroke="#46403C"/><path d="M18.589 10.832c.467-1.343 2.367-1.343 2.834 0l1.18 3.396a2.5 2.5 0 002.31 1.68l3.596.072c1.422.03 2.009 1.836.876 2.695l-2.866 2.173a2.5 2.5 0 00-.882 2.716l1.04 3.442c.413 1.361-1.124 2.478-2.292 1.665l-2.951-2.054a2.5 2.5 0 00-2.856 0l-2.952 2.054c-1.167.813-2.704-.304-2.292-1.665l1.041-3.442a2.5 2.5 0 00-.882-2.716l-2.866-2.173c-1.133-.859-.546-2.666.876-2.695l3.595-.073a2.5 2.5 0 002.31-1.679l1.181-3.396z" stroke="#46403C"/></svg>
